X:1
T:Back to the Hills
C:J.Scott Skinner
L:1/4
M:4/4
I:linebreak $
K:C
V:1 treble 
V:1
 B |"Am" A3/2 B/ c B/A/ |"Dm" d3/2 e/ f e/d/ |"Am" e c{c} B A | A2"E7"{BA} ^G E | %5
"Am" A3/2 B/ c B/A/ |"Dm" d3/2 e/ f e/d/ |"Am" e a"E7" a ^g | b2"Am" a ||$ e |"Am" a2 e2 | %11
"Dm" f3 f |"Am" e c B A | A2"E7"{BA} ^G e |"Am" a2 e2 |"Dm" f3 f |"Am" e a"E7" a ^g | b2"Am" a |] %18
